X:1
T:Long have I made  - Wilbye
T:#
%%score 1 2 3 { 4 | 5 }
L:1/8
Q:1/4=120
M:4/4
K:Eb
V:1 treble nm="Soprano I"
V:2 treble nm="Soprano II"
V:3 treble nm="Alto I"
V:4 treble-8 nm="Tenor I" snm="T"
V:5 treble-8 
V:1
"^Long have I made these hills and valleys weary""^John Wilbye\n (1574-1638)"!p! G8- | G8 | G8- | %3
w: Long,||long|
 G4 F2 E2 | D8 | C4 c4- | c4 =B4 | c4 e4 |[M:4/4] d8 | c4 z4 | z8 | z8 | z8 | z8 | z8 |!f! G8 | %16
w: * have I|made|these hills|* and|val- leys|wea-|ry||||||With|
 E2 F2 G2 =A2 | =B2 G2 B2 c2 | d4 (c4- | c4 =B4) | c4 z2 c2 | _B4 B4 | G4 E4 | F2 G4 F2- | %24
w: noise of these my|shrieks and cries that|fill the||air, with|noise of|these my|shrieks and cries|
 F2 E2 F3 E | E8 | z4 F4 | G2 B2 B2 A2 | G8 | z2!p! G2 c2 B2 | =A2 F2 A2 (GF) | G8- | G4 G4 | %33
w: * that fill the|air,|and|cries that fill the|air;|She on- ly,|who should make me *|mer\-|* ry,|
 z2 G2 G2 =A2 | =B4 G4 |!mf!"^cresc." =B2 d4 c2 | =B8 | z8 | z8 | z4 z2 d2 | e3 e d2 d2 | c6 G2 | %42
w: Hears not my|pray- er:|That I, a-|las!|||that|I, a- las! a-|las! mis-|
 c2 e2 d2 c2 | (=B2 c4 B2 | c2) G2 G2 G2 | G6 B2 | E2 E2 A2 G2 | F2 E2 F4 |!pp! G2 B4 A2 | G4 F4 | %50
w: for- tune's son and|heir, * *|* that I, a-|las! a-|las! mis- for- tune's|son and heir,|Hope in none|o- ther|
 E8 | c2 (e4 d2) | c8- | c8 | =B8 | z8 | z8 | z8 | z8 | c8- | c4 B4 | =A8 | z8 | z4 c4- | c4 G4 | %65
w: hope|but in *|des\-||pair.|||||O|* un-|kind!||O|* un-|
 G4 z4 | z8 | z8 | d8- | d4 ^F4 | ^F4 B4 | =A8 | G8- | G8 | G8 | z8 | z8 | z8 | z8 | z8 | %80
w: kind!|||O|* un-|kind and|cru-|el!||||||||
 z4!p! G4- | G4 B4- | B4 A4 | G8- | G4 (F2 E2) | D8 | C4 z4 | z8 | z8 | _E4 G4- | G4 F4 | E8- | %92
w: Then|* die|* I|will|* to *|ease|thee,|||then die|* I|will|
 E4 D4 | C8- | C4 =B,4 |!f! d2 d4 c2 | =B4 B2 c2- | c2 _B2 A2 A2 | G4 z4 | z8 | z8 | z2 F2 F2 F2 | %102
w: * to|ease|* thee:|Yet if I|die, the world|* will thee con-|trol,|||Lo! here lies|
 G8 | z2 E2 E2 E2 | A8 | z2 F2 F2 F2 | B8- | B2 A2 A2 G2 | F8 | z8 | z8 | z8 | z4 z2"^dim."!p! d2 | %113
w: one,|lo! here lies|one,|lo! here lies|one,|* a- las! poor|soul!||||a|
 c2 d2 e4- | e4 d4 | =B8 | c8- | c4 d2 c2 |[Q:1/4=116] =B6[Q:1/4=112] c2 |[Q:1/4=107] d8 | %120
w: true love's mar\-|* tyr,|a|mar\-|* tyr, a|true love's|mar-|
[Q:1/4=104] c16 |] %121
w: tyr.|
V:2
 z8 | z8 | z8 | z8 | z8 | z8 | z8 |!p! G8- |[M:4/4] G8 | G8- | G4 F2 E2 | D8 | C4 c4- | c4 =B4 | %14
w: |||||||Long,||long|* have I|made|these hills|* and|
 c4 e4 | d8 | c8 | z8 |!f! G4 E2 F2 | G2 =A2 =B2 G2 | e8 | d2 f4 (ed) | e6 (dc) | d6 _B2 | B8- | %25
w: val- leys|wea-|ry||With noise of|these my shrieks and|cries|that fill, that *|fill the *|air, with|noise|
 B4 (A2 B2) | c4 d4 | e6 (dc) | =B2 c2 d2 d2 | c4 z4 | z2!p! c2 c2 d2 | =e2 c2 e2 (dc) | d2 d4 d2 | %33
w: * of *|these my|shrieks and *|cries that fill the|air;|She on- ly,|who should make me *|mer- ry, Hears|
 c4 G4 | G4 z4 | z8 | z4 z2!mf! =B2 | d2 c2 =B4- | B2 G2 F2 E2 | D2 C2 D3 D | C4 z4 | z8 | z8 | %43
w: not my|pray'r:||That|I, a- las!|* a- las! mis-|for- tune's son and|heir,|||
 z4 z2 d2 | e3 e d2 d2 | c6 G2 | c2 e2 d2 c2 | B8- | B4 z4 | z8 |!pp! c2 e4 d2 | c4 G4 | A4 G4 | %53
w: that|I, a- las! a-|las! mis-|for- tune's son and|heir,|||Hope in none|o- ther|hope but|
 G4 F4 | G8 | G6 =A2 | =B4 (=A2 B2) | c4 G4 | z8 | z8 | f4 (=e2 d2) | c8 | c8- | c4 =E4 | =E4 z4 | %65
w: in des-|pair.|O un-|kind and *|cru- el!|||O un\- *|kind!|O|* un-|kind!|
 z8 | z4 G4- | G4 D4 | D4 z4 | z8 | z8 | d8- | d4 c4 | =B8- | B4 c4 | d8 | e6!f! c2 | c4 c2 f2- | %78
w: |O|* un-|kind!|||O|* un-|kind|* and|cru-|el! if|thus my death|
 f2 =e2 d4 | c8 | z8 | z8 | z8 | z8 | z8 | z8 | z8 | z8 | z8 |!p! G8 | B8- | B4 A4 | G4 G4- | %93
w: * may please|thee,||||||||||Then|die|* I|will to|
 G4 F4 | G8 |!f! G2 G4 G2 | G4 G2 F2 | E4 F2 F2 | G2 B2 B3 A | G3 G G2 F2 | G2 F2 E4 | D8 | %102
w: * ease|thee:|Yet if I|die, the world|will thee con-|trol, And write up-|on my tomb, O|sweet de- par-|ture,|
 z2 B2 B2 B2 | c8 | z2 c2 c2 c2 | d8 | z2 D2 D2 D2 | (E3 D) (EFGA) | B4 B4 | B8 | z4!p! B4 | %111
w: Lo! here lies|one,|lo! here lies|one,|lo! here lies|one, * a\- * * *|las! poor|soul!|a|
 c2 d2 e4- | e4 d4 | z8 | z8 | z4 z2"^dim." F2 | G2 A2 B4- | B4 A4 | z2 G2 F2 E2 | D8 | =E16 |] %121
w: true love's mar\-|* tyr,|||a|true love's mar\-|* tyr,|a true love's|mar-|tyr.|
V:3
 z8 | z8 | z8 | z8 | z8 | z8 | z8 | z8 |[M:4/4] z8 | z8 |!p! G8- | G8 | E4 C4 | G8 |!f! C4 c4- | %15
w: ||||||||||Long||have I|made|these hills|
 c4 =B4 | (c2 _BA) G4 | G8- | G8 | G8- | G4 z4 | z4 z2 G2 | E2 F2 G2 A2 | B6 F2 | B2 G2 F2 F2 | %25
w: * and|val\- * * leys|wea\-||ry||With|noise of these my|shrieks and|cries that fill the|
 G4 E4 | A6 A2 | G6 (FE) | D2 C2 C2 =B,2 | C6!p! C2 | C2 =A2 A2 =B2 | c4 z4 | z2!p! D2 G2 F2 | %33
w: air, of|these my|shrieks and *|cries that fill the|air, with|cries that fill the|air;|She on- ly,|
 =E2 C2 E2 (DC) | D2 D6 |!mf! D2 D4 G2 | G6 G2 | G2 G2 G4 | G,4 D2 (EF) | G2 G2 G4- | G2 G2 G3 G | %41
w: who should make me *|mer- ry:|That I, a-|las! that|I, a- las!|mis- for- tune's *|son and heir,|* that I a-|
 G6 B2 | E2 E2 F2 A2 | G8- | G4 z2 =B2 | c3 c C2 D2 | E2 E2 F2 (GA) | B2 G2 F4 | z8 | %49
w: las! mis-|for- tune's son and|heir,|* that|I, a- las! a-|las! mis- for- tune's *|son and heir,||
!pp! G2 B4 A2 | (A2 G4) F2 | E4 z4 | z2 C2 C2 D2 | (E8- | E4 D4) | z8 | z8 | G8- | G4 F4 | =E8 | %60
w: Hope in none|o\- * ther|hope|but in des-|pair.||||O|* un-|kind!|
 z8 | z4 =A4- | A4 (G2 F2) | G8- | G4 z4 | G8- | G4 =B,4 | =B,8 | z8 | z8 | z8 | =F8- | F4 =E4 | %73
w: |O|* un\- *|kind!||O|* un-|kind!||||O|* un-|
 D8- | D4 C4 | G8 | G6!f! G2 | F4 C2 D2- | D2 G2 G4 | G8 | z4!p! E4 | G8- | G4 F4 | G8 | =B,4 C4- | %85
w: kind|* and|cru-|el! if|thus my death|* may please|thee,|Then|die|* I|will|to ease|
 C4 =B,4 | C4 G4- | G4 F4 | =E8 | C4 _B,4- | B,8 | C8- | C4 z4 | z8 | z8 |!f! D2 D4 E2 | G4 z2 C2 | %97
w: * thee,|then die|* I|will|to ease||thee:||||Yet if I|die, the|
 A,2 B,2 F2 F2 | B,2 E2 E2 D2 | E3 E E2 F2 | E2 F2 (G2 A2) | B8- | B4 z2 E2 | E2 E2 A4 | z4 z2 F2 | %105
w: world will thee con-|trol, And write up-|on my tomb, O|sweet de- par\- *|ture,|* Lo!|here lies one|lo!|
 F2 F2 B4- | B2 F2 G2 F2 | E4 E2 E2- | E2 (DC D4) | E8 | z4 z2!p! D2 | E2 F2 G4- | G4 F4 | %113
w: here lies one,|* lo! here lies|one, a- las!|* poor * *|soul!|a|true love's mar\-|* tyr,|
"^dim." (E2 F2) G4- | G4 G4 | G2 G2 z4 | z8 | z8 | G2 G4 G2 | G8 | G16 |] %121
w: a * true|* love's|mar- tyr,|||a true love's|mar-|tyr.|
V:4
 z8 | z4!p! G4 | E2 F2 G2 =A2 | (=B4 c4- | c4) =B4 | c4 e4 | d8 | c8 |[M:4/4][K:treble-8] z4 d4 | %9
w: |Long|have I made these|hills *|* and|val- leys|wea-|ry,|long|
 e2 c2 e2 (dc) | d4 c4 | d6 g2 | g4 g4 |!f! G8 | A2 (GF) E2 F2 | G6 d2 | c2 d2 e4 | d2 g4 (fe) | %18
w: have I made these *|hills and|val- leys|wea- ry|With|noise of * these my|shrieks, with|noise of these|my shrieks and *|
 d4 e4 | d4 d4 | G4 z4 | z8 | z8 | z8 | z8 | z8 | z8 | z8 | z4!p! g4 | g6 g2 | f4 f4 | =e4 c4 | %32
w: cries that|fill the|air;||||||||She|on- ly,|who should|make me|
 g4 d4 | z2 =e2 e2 f2 | g8 |!mf! g2 g4 _e2 | d6 d2 | =B2 e2 d4- | d2 c2 (=A_B) c2 | (=B2 c4) B2 | %40
w: mer- ry,|Hears not my|pray'r:|That I, a-|las! that|I, a- las!|* mis- for\- * tune's|son * and|
 c2 c2 d2 =B2 | e6 d2 | c2 B2 AF f2- | f2 e2 d4 | z8 | e2 (e3 f) g2 | a6 c2 | d2 e2 e2 d2 | e4 z4 | %49
w: heir, that I, a-|las! a-|las! mis- for- tune's son|* and heir,||that I, * a-|las! mis-|for- tune's son and|heir,|
 z8 | z8 |!pp! e2 g4 f2 | e8- | e4 c4 | g8 | =B4 e4 | d8 | c8 | =B4 (=A2 B2) | c8 | z8 | z8 | z8 | %63
w: ||Hope in none|o\-|* ther|hope|but in|des-|pair.|O un\- *|kind!||||
 z8 | z4 =e4- | e4 (d2 c2) | d8- | d4 g4 | d6 =e2 | ^f4 d4 | d8- | d4 =A4 | =B4 z4 | z4 G4 | G8- | %75
w: |O|* un\- *|kind!|* un-|kind and|cru- el!|O|* un-|kind|and|cru\-|
 G8 | G6!f! G2 | =A4 G2 F2- | F2 c2 (c2 =B2) | c8 |!p! c4 _e4- | e4 d4- | d4 f4- | f4 e4 | %84
w: |el! if|thus my death|* may please *|thee,|Then die|* I|* will|* to|
 (d4 c4) | d4 G4- | G4 B4- | B4 A4 | G8- | G8 | E4 F4 | G4 (A2 B2) | c4 d4 | e4 c4 | e4 d4 | %95
w: ease *|thee, then|* die|* I|will||to ease|thee, then *|die I|will to|ease thee:|
!f! B2 B4 c2 | d4 d2 c2- | c2 e2 e2 d2 | e2 B2 B2 f2 | B3 B B2 B2 | B2 F2 c4 | F2 B2 B2 B2 | %102
w: Yet if I|die, the world|* will thee con-|trol, And write up-|on my tomb, O|sweet de- par-|ture, Lo! here lies|
 E2 e2 e2 e2 | c2 A2 c2 c2 | F2 f2 f2 f2 | d2 B2 d3 c | B4 z4 | z8 | z2 F2 F2 F2 | G8- | G4!p! F4 | %111
w: one, lo! here lies|one, lo! here lies|one, lo! here lies|one, lo! here lies|one,||a- las! poor|soul!|* a|
 E6 F2 | G2 G2 z2"^dim." d2 | e2 d2 c4- | c4 =B4 | z4 z2 d2 | =e2 f2 g4- | g4 f4- | f2 e2 d2 (c2- | %119
w: true love's|mar- tyr, a|true love's mar\-|* tyr,|a|true love's mar\-|* tyr,|* a true love's|
 c2 =B=A) B4 | c16 |] %121
w: * * * mar-|tyr.|
V:5
 z8 | z8 | z8 | z8 | z8 | z8 | z8 | z8 |[M:4/4][K:treble-8]!p! G8 | E2 F2 G2 =A2 | (=B4 c4- | %11
w: ||||||||Long|have I made these|hills *|
 c4) =B4 | c4 e4 | d8 | c4 z4 | z4!f! G4 | A2 (GF) E2 F2 | G6 =A2 | =B2 G2 c2 c2 | G6 d2 | g4 g4 | %21
w: * and|val- leys|wea-|ry|With|noise of * these my|shrieks and|cries that fill the|air, with|noise of|
 f2 d4 (g2- | gf) (ed) c4 | z2 f2 (B3 c | d2 e4) d2 | e4 c4- | c4 A4 | B6 f2- | f2 e2 d2 d2 | %29
w: these my shrieks|* * and * cries|tha fill *|* * the|air, with|* noise|of these|* my shrieks that|
!p! =e4 c4 | c8- | c4 z4 | z4 G4 | G4 G4 | G4 G4 |!mf! G2 =B4 c2 | G8 | z8 | z8 | z4 z2 G2 | %40
w: fill the|air:||Hears|not my|pray- er:|That I, a-|las!|||that|
 c3 c =B2 G2 | c6 _B2 | A2 G2 F2 F2 | G8 | z8 | z8 | z8 | z8 |!pp! e2 g4 f2 | e4 B4 | c8- | c4 z4 | %52
w: I, a- las! a-|las! mis-|for- tune's son and|heir,|||||Hope in none|o- ther|hope||
 c2 e4 d2 | c8 | z8 | z8 | z8 | z8 | z4 =A4- | A4 G4 | F4 G4 | =A2 F2 f4- | f4 c4 | c8 | c8- | %65
w: but in des-|pair.|||||O|* un-|kind and|cru- el! O|* un-|kind!|O|
 c4 (=B2 =A2) | G8 | z4 =B4- | B4 (=A2 G2) | =A8- | A4 G4 | =A4 A4 | z4 g4- | g4 =B4 | =B4 e4 | %75
w: * un\- *|kind!|O|* un\- *|kind|* and|cru- el!|O|* un-|kind and|
 d8 | c6!f! c2 | c4 c2 =B2- | B2 c2 d4 | =e8 |!p! c8 | G8 | B8 | E6 F2 | G8- | G8 | =E4 E4 | F8 | %88
w: cru-|el! if|thus my death|* may please|thee,|Then|die|I|will to|ease||thee, to|ease|
 C8 | z8 | z8 | z8 | z8 | z8 | z8 |!f! G2 G4 c2 | G4 G2 A2- | A2 G2 F2 F2 | E2 G2 G2 A2 | %99
w: thee:|||||||Yet if I|die, the world|* will thee con-|trol, And write up-|
 B3 G G2 B2 | G2 B2 (G2 E2) | B4 z4 | z2 E2 E2 E2 | A8 | z2 F2 F2 F2 | B8 | z2 B2 B2 B2 | %107
w: on my tomb, O|sweet de- par\- *|ture,|Lo! here lies|one,|lo! here lies|one,|lo! here lies|
 G2 c2 c2 B2 | B8- | B4!p! B4 | c4 d4 | G8- | G8 | G8- | G2"^dim." g2 g2 f2 | (e4 d4) | c8- | %117
w: one, a- las! poor|soul!|* a|true love's|mar\-||tyr,|* a true love's|mar\- *|tyr,|
 c2 c2 f2 e2 | (d2 c2 d2 e2 | g4 G4) | G16 |] %121
w: * a true love's|mar\- * * *||tyr.|

